X:1
T: Kitty's Rambles
C:
R:Jig
Q:180
K:D
M:6/8
L:1/16
|:G2|F2E2D2 =c2B2c2|d2c2d2 e2f2g2|f2e2d2 =c2A2F2|G2A2F2 G2F2E2|F2E2D2 =c4A2|d2c2d2 e2f2g2|f2e2d2 =c2A2G2|A2d2c2 d4:|
|:A2|d2f2a2 d2f2a2|d2f2a2 a2f2d2|=c2e2g2 c2e2g2|=c2e2g2 g2f2e2|f2e2f2 g2f2g2|a2f2a2 g2f2e2|f2e2d2 =c2A2G2|A2d2c2 d4:|
|:e2|f2g2f2 e2f2e2|d2e2d2 =c2A2G2|F2G2F2 E2F2E2|D2E2D2 G2E2D2|A2B2A2 =c2A2G2|d2c2d2 e2f2g2|f2e2d2 =c2A2G2|A2d2c2 d4:|
|:fg|a2f2d2 d2c2d2|d2f2a2 a2g2f2|g2d2=c2 c2B2c2|e2=c2e2 g2f2e2|f2d2f2 g2e2g2|a2g2f2 e2f2g2|f2e2d2 c2A2G2|A2d2c2 d4:|
